X:1
T:Captain Burke
M:4/4
L:1/8
K:C
 E2| G2 DD E2 FF| G2 D2 E2E-F| G2 e2 d2c-B| c6|c-d| e2 BB c2G-A| _B2 G2 A2 GF|\
 G2F-E C2 C2| C6||
